X:1
T:Perthshire Lasses, The
T:Perthshire Lasses, The
T:Alexander Walker
C:Alexander Walker
L:1/8
M:2/2
K:Bb
V:1 treble 
V:1
 g | fBdB fBbd | fBdB cGGg | fBdB Bfdf | egce dBB :| a | bfga fdBd | ecdB cGGa | bfgb fdBd | %9
 GcAF{F} (B2 B)a | bfgb fdBd | ecdB cGGA | BdAc GBFD | EGFe dBB || %14

